X:1
T: Punkie Willie
C:
R:Strathspey
Q: 128
K:Am
M:4/4
L:1/16
|:a2|ec3 c3B A4 A3B|c3B c3d ea3 a3g|ec3 c3B A4 A3B|cdef e3d cA3 A2a2|
ec3 c3B A4 A3B|c3B c3d ea3 a3g|ec3 c3B A4 A3B|cdef e3d cA3 A2B2|
cc3 e3f g4 g3a|g3e c3e d3B G3B|cc3 e3f g3e a3f|eagf edcB cA3 A2B2|
cc3 e3f g4 g3a|g3e c3e d3B G3B|cc3 e3f g3e a3f|eagf edcB cA3 A2:|
